X: 33097
T: Prince Charlie's Quickstep
R: jig
M: 6/8
K: Dmajor
A|d2AF2A|d2f fed|e2cA2c|e2g gfe|a2fd2f|f2a agf|e2dc2B|A2GF2E|
d2AF2A|d2f fed|e2cA2c|e2g gfe|a2fd2d|g2ec2c|d2df2f|d3d2f/g/|
a2fd2f|f2a agf|g2ec2e|e2g gfe|f2dA2d|f2a agf|e2dc2B|A2GF2E|
d2AF2A|d2f fed|e2cA2c|e2g gfe|a2fd2d|g2ec2c|d2df2f|d3d2||

